public/svg/feature_icon_10.svg

<svg width="33" height="33" viewBox="0 0 33 33" fill="none" xmlns="http://www.w3.org/2000/svg">
<path d="M21.9867 12.8488C20.009 13.1884 18.0061 13.3562 16 13.3504C7.716 13.3504 1 10.6406 1 7.29876C1 3.95688 7.716 1.24707 16 1.24707C24.284 1.24707 31.0133 3.95554 31.0133 7.29876C30.9445 7.9305 30.7245 8.5359 30.3721 9.06279C30.0197 9.58967 29.5456 10.0223 28.9907 10.3233" stroke="#1B2738" stroke-width="2" stroke-linecap="round" stroke-linejoin="round"/>
<path d="M31.0134 15.3682V7.29883" stroke="#1B2738" stroke-width="2" stroke-linecap="round" stroke-linejoin="round"/>
<path d="M1 7.29883V15.3678C1 18.5604 7.13333 21.1747 14.8987 21.4033" stroke="#1B2738" stroke-width="2" stroke-linecap="round" stroke-linejoin="round"/>
<path d="M1 15.3682V23.4374C1 27.1761 9.4 30.1227 19 29.3709" stroke="#1B2738" stroke-width="2" stroke-linecap="round" stroke-linejoin="round"/>
<path d="M27.0147 13.3506L19.1333 22.606C19.0714 22.6794 19.0317 22.7691 19.0188 22.8645C19.0058 22.96 19.0203 23.0572 19.0604 23.1446C19.1005 23.232 19.1646 23.306 19.2451 23.3579C19.3256 23.4097 19.4192 23.4372 19.5147 23.4371H23.0147V31.5063L30.8947 22.2496C30.9566 22.1765 30.9965 22.0869 31.0096 21.9916C31.0226 21.8963 31.0083 21.7992 30.9683 21.7119C30.9283 21.6245 30.8643 21.5506 30.7839 21.4988C30.7035 21.4471 30.6101 21.4196 30.5147 21.4198H27.0147V13.3506Z" stroke="#1B2738" stroke-width="2" stroke-linecap="round" stroke-linejoin="round"/>
</svg>

<svg xmlns="http://www.w3.org/2000/svg" width="33" height="33" fill="none"  stroke="#1b2738" stroke-width="2" xmlns:v="https://vecta.io/nano"><g stroke-linecap="round" stroke-linejoin="round"><path d="M21.987 12.849A34.78 34.78 0 0 1 16 13.35c-8.284 0-15-2.71-15-6.052s6.716-6.052 15-6.052 15.013 2.708 15.013 6.052a3.94 3.94 0 0 1-.641 1.764 3.9 3.9 0 0 1-1.381 1.261m2.022 5.045V7.299"/><path d="M1 7.299v8.069c0 3.193 6.133 5.807 13.899 6.036"/><path d="M1 15.368v8.069c0 3.739 8.4 6.685 18 5.933"/></g><path d="M27.015 13.351l-7.881 9.255c-.062.073-.102.163-.114.258a.51.51 0 0 0 .042.28c.04.087.104.161.185.213s.174.079.27.079h3.5v8.069l7.88-9.257c.062-.073.102-.163.115-.258s-.001-.192-.041-.28a.5.5 0 0 0-.184-.213c-.08-.052-.174-.079-.269-.079h-3.5v-8.069z" stroke-linejoin="round"/></svg>
